Adwaita++-Light/panel/16/phone-battery-good.svg

<svg height="16" width="16" xmlns="http://www.w3.org/2000/svg">
  <g fill="#444">
    <path d="m2.5 1.99965c-.277 0-.5.223-.5.5v.5l-2-.002v-.0003 10.50265c0 .277.223.5.5.5h6c.277 0 .5-.223.5-.5v-10.50165l-.5.002h-1.5v-.5c0-.277-.223-.5-.5-.5z" opacity=".3"/>
    <path d="m0 6v7.5c0 .277.223.5.5.5h6c.277 0 .5-.223.5-.5v-7.5z"/>
    <path d="m10 2c-.554 0-1 .446-1 1v10c0 .554.446 1 1 1h5c.554 0 1-.446 1-1v-10c0-.554-.446-1-1-1zm.714844 1h3.570312c.395715 0 .714844.3345.714844.75v7.5c0 .4155-.319129.75-.714844.75h-3.570312c-.395715 0-.714844-.3345-.714844-.75v-7.5c0-.4155.319129-.75.714844-.75z"/>
  </g>
</svg>

<svg xmlns="http://www.w3.org/2000/svg" width="16" height="16" version="1.1">
 <defs>
  <style id="current-color-scheme" type="text/css">
   .ColorScheme-Text { color:#444444; } .ColorScheme-Highlight { color:#4285f4; }
  </style>
 </defs>
 <path style="opacity:0.3;fill:currentColor" class="ColorScheme-Text" d="m 2.5,1.99965 c -0.277,0 -0.5,0.223 -0.5,0.5 l 0,0.5 -2,-0.002 0,-3e-4 L 0,13.5 C 0,13.777 0.223,14 0.5,14 l 6,0 C 6.777,14 7,13.777 7,13.5 l 0,-10.50165 -0.5,0.002 -1.5,0 0,-0.5 c 0,-0.277 -0.223,-0.5 -0.5,-0.5 z"/>
 <path style="fill:currentColor" class="ColorScheme-Text" d="m 0,6 0,7.5 C 0,13.777 0.223,14 0.5,14 l 6,0 C 6.777,14 7,13.777 7,13.5 L 7,6 Z"/>
 <path style="fill:currentColor" class="ColorScheme-Text" d="M 10,2 C 9.446,2 9,2.446 9,3 l 0,10 c 0,0.554 0.446,1 1,1 l 5,0 c 0.554,0 1,-0.446 1,-1 L 16,3 C 16,2.446 15.554,2 15,2 l -5,0 z m 0.714844,1 3.570312,0 C 14.680871,3 15,3.3345 15,3.75 l 0,7.5 C 15,11.6655 14.680871,12 14.285156,12 l -3.570312,0 C 10.319129,12 10,11.6655 10,11.25 l 0,-7.5 C 10,3.3345 10.319129,3 10.714844,3 Z"/>
</svg>
